X:35
T:Wrights whim
T:Butcher's Hornpipe,aka
M:4/4
L:1/8
Q:1/2=105
S:D.Wright, Extraordinary Collection, London 1713
Z:Pete Stewart, 2004 <www.hornpipemusic.co.uk>
K:A
ED | CDEC A,CEC | A,2A4BA | GABG EGBG | E2e4fe |
defd cdec | defg agfe | aefd ecBG | E2A4 ||
cd | ecAc ecAc | fdBd fdBd | gece afga | g2e4dc |
defd cdec | gefg agfe | gefd ecBA | E2A4 |]

